X: 1
T: The Humours Of Flinn
R: waltz
M: 3/4
L: 1/8
K: Dmaj
de|:fe d2 A2|FG A2 F2|G2 B2 e2|e2 A2 d2|GF G2 d2|FE F2 D2|G2 GA BG|A2 E2 (3AGF|
G2 GA Bc|d2 A2 d2|e2 A2 e2|f2 fg af|g2 gf ed|a2 A2 F2|EG Bd cA|B4 de:|
|:fA df af|eA ce ae|dB FB dB|cd cA F2|G2 Bc dA|FG AF DF|E2 ef (3gfe|c2 e2 a2|
fA df af|e2 ef (3gfe|d2 AG (3FED|B2 BA Bc|d2 AB cd|e2 ef ga|fe df ec|d4 de:|

